X:1076
T:The Poor little Gypsey.
M:3/8
L:1/8
Q:1/8=120
Z:Jack Campin * www.campin.me.uk * 2009
K:G
(B/c/)|dB`G|gec|dB`G|A2d/c/|Bdg|e2a/g/|    fdf|g2
g|     ge^c|dAa|ge^c|dfg   |afd|B2g/e/|{d}^cBc|d3-|d2
e|c>BA   |c2d|B>AG|z2d/d/|gGG|dD (d//e//d//c//)|
Bdg|(f>ed)|e2e|dcB|ABc|B>AG|]

